unite@hardpixel.eu/themes/prof-gnome/close-active.svg

<svg enable-background="new" height="16" width="16" xmlns="http://www.w3.org/2000/svg"><path d="m8.0000702 16c4.4182038 0 7.9999298-3.581714 7.9999298-8 0-4.4182856-3.581726-7.9999998-7.9999298-7.9999998-4.4183344 0-8.0000702 3.5817142-8.0000702 7.9999998 0 4.418286 3.5817358 8 8.0000702 8" fill="#a40" fill-rule="evenodd"/><path d="m8.0000702 15.428571c4.1026068 0 7.4284938-3.18946 7.4284938-7.1235978 0-3.9342482-3.325887-7.123489-7.4284938-7.123489-4.1027586 0-7.42864878 3.1892408-7.42864878 7.123489 0 3.9341378 3.32589018 7.1235978 7.42864878 7.1235978" fill="#d45500" fill-rule="evenodd"/><path d="m4.865345 4.8024024c-.4391321.4390909-.4391321 1.1460973 0 1.5852998l1.585314 1.5852996-1.585314 1.5852983c-.4391321.4392022-.4391321 1.1462079 0 1.5852989.4391319.439202 1.146182.439202 1.585314 0l1.5853148-1.5852989 1.5853149 1.5852989c.4391323.439202 1.1461823.439202 1.5853143 0 .439132-.439091.439132-1.1460967 0-1.5852989l-1.5853143-1.5852982 1.5853143-1.5852997c.439132-.4392025.439132-1.1462089 0-1.5852998-.439132-.4392019-1.146182-.4392019-1.5853143 0l-1.5853149 1.5852998-1.5853148-1.5852998c-.439132-.4392019-1.1461821-.4392019-1.585314 0z" opacity=".5"/></svg>

<?xml version="1.0" encoding="UTF-8" standalone="no"?>
<svg
   xmlns:dc="http://purl.org/dc/elements/1.1/"
   xmlns:cc="http://creativecommons.org/ns#"
   xmlns:rdf="http://www.w3.org/1999/02/22-rdf-syntax-ns#"
   xmlns:svg="http://www.w3.org/2000/svg"
   xmlns="http://www.w3.org/2000/svg"
   xmlns:sodipodi="http://sodipodi.sourceforge.net/DTD/sodipodi-0.dtd"
   xmlns:inkscape="http://www.inkscape.org/namespaces/inkscape"
   width="16"
   height="16"
   version="1.1"
   style="enable-background:new"
   id="svg8"
   sodipodi:docname="titlebutton-close-active.svg"
   inkscape:version="0.92.4 5da689c313, 2019-01-14">
  <metadata
     id="metadata14">
    <rdf:RDF>
      <cc:Work
         rdf:about="">
        <dc:format>image/svg+xml</dc:format>
        <dc:type
           rdf:resource="http://purl.org/dc/dcmitype/StillImage" />
        <dc:title></dc:title>
      </cc:Work>
    </rdf:RDF>
  </metadata>
  <defs
     id="defs12" />
  <sodipodi:namedview
     pagecolor="#ffffff"
     bordercolor="#666666"
     borderopacity="1"
     objecttolerance="10"
     gridtolerance="10"
     guidetolerance="10"
     inkscape:pageopacity="0"
     inkscape:pageshadow="2"
     inkscape:window-width="1920"
     inkscape:window-height="1011"
     id="namedview10"
     showgrid="false"
     inkscape:zoom="9.8333333"
     inkscape:cx="-46.627119"
     inkscape:cy="11.440678"
     inkscape:window-x="0"
     inkscape:window-y="0"
     inkscape:window-maximized="1"
     inkscape:current-layer="svg8" />
  <path
     inkscape:connector-curvature="0"
     id="path2"
     d="M 8.0000702,16 C 12.418274,16 16,12.418286 16,8 16,3.5817144 12.418274,2e-7 8.0000702,2e-7 3.5817358,2e-7 0,3.5817144 0,8 c 0,4.418286 3.5817358,8 8.0000702,8"
     style="fill:#aa4400;fill-opacity:1;fill-rule:evenodd;stroke:none;stroke-width:1.14285707" />
  <path
     inkscape:connector-curvature="0"
     id="path4"
     d="m 8.0000702,15.428571 c 4.1026068,0 7.4284938,-3.18946 7.4284938,-7.1235978 0,-3.9342482 -3.325887,-7.123489 -7.4284938,-7.123489 -4.1027586,0 -7.42864878,3.1892408 -7.42864878,7.123489 0,3.9341378 3.32589018,7.1235978 7.42864878,7.1235978"
     style="fill:#d45500;fill-opacity:1;fill-rule:evenodd;stroke:none;stroke-width:1.11914313" />
  <path
     inkscape:connector-curvature="0"
     id="path4-3"
     d="m 4.865345,4.8024024 c -0.4391321,0.4390909 -0.4391321,1.1460973 0,1.5852998 L 6.450659,7.9730018 4.865345,9.5583001 c -0.4391321,0.4392022 -0.4391321,1.1462079 0,1.5852989 0.4391319,0.439202 1.146182,0.439202 1.585314,0 L 8.0359738,9.5583001 9.6212887,11.143599 c 0.4391323,0.439202 1.1461823,0.439202 1.5853143,0 0.439132,-0.439091 0.439132,-1.1460967 0,-1.5852989 L 9.6212887,7.9730019 11.206603,6.3877022 c 0.439132,-0.4392025 0.439132,-1.1462089 0,-1.5852998 -0.439132,-0.4392019 -1.146182,-0.4392019 -1.5853143,0 L 8.0359738,6.3877022 6.450659,4.8024024 c -0.439132,-0.4392019 -1.1461821,-0.4392019 -1.585314,0 z"
     style="opacity:0.5;fill:#000000;fill-opacity:1;stroke:none;stroke-width:2.2419734;stroke-linecap:round;stroke-linejoin:round;stroke-miterlimit:4;stroke-dasharray:none;stroke-opacity:1;enable-background:new"
     inkscape:transform-center-x="26.250006"
     inkscape:transform-center-y="-5.3389843" />
</svg>
